src/assets/images/icons/delete-back-line.svg

<svg width="24" height="24" viewBox="0 0 24 24" fill="none" xmlns="http://www.w3.org/2000/svg">
<g clip-path="url(#clip0_58_16792)">
<path d="M6.53505 3H21.0001C21.2653 3 21.5196 3.10536 21.7072 3.29289C21.8947 3.48043 22.0001 3.73478 22.0001 4V20C22.0001 20.2652 21.8947 20.5196 21.7072 20.7071C21.5196 20.8946 21.2653 21 21.0001 21H6.53505C6.37046 21 6.20841 20.9594 6.06327 20.8818C5.91813 20.8042 5.7944 20.6919 5.70305 20.555L0.370054 12.555C0.260415 12.3907 0.201904 12.1975 0.201904 12C0.201904 11.8025 0.260415 11.6093 0.370054 11.445L5.70305 3.445C5.7944 3.30808 5.91813 3.19583 6.06327 3.11821C6.20841 3.04058 6.37046 2.99998 6.53505 3ZM7.07005 5L2.40405 12L7.07005 19H20.0001V5H7.07005ZM16.0001 11V13H9.00005V11H16.0001Z" fill="#181D27"/>
</g>
<defs>
<clipPath id="clip0_58_16792">
<rect width="24" height="24" fill="white"/>
</clipPath>
</defs>
</svg>

<svg xmlns="http://www.w3.org/2000/svg" width="24" height="24" fill="none" viewBox="0 0 24 24"><g clip-path="url(#a)"><path fill="#181d27" d="M6.535 3H21a1 1 0 0 1 1 1v16a1 1 0 0 1-1 1H6.535a1 1 0 0 1-.832-.445l-5.333-8a1 1 0 0 1 0-1.11l5.333-8A1 1 0 0 1 6.535 3m.535 2-4.666 7 4.666 7H20V5zM16 11v2H9v-2z"/></g><defs><clipPath id="a"><path fill="#fff" d="M0 0h24v24H0z"/></clipPath></defs></svg>
